X:24
T:Jim Keefe's
Z: id:dc-polka-19
M:2/4
L:1/8
K:A Major
z/|ea c/d/c/B/|Ac EB|cB Bc/e/|fe ce|!
ea c/d/c/B/|Ac EB|c/d/c/B/ cB|A2 A3/2:|!
B/|cB Bc/e/|fe cB|cB Bc/e/|fe ce|!
ea c/d/c/B/|Ac EB|c/d/c/B/ cB|A2 A3/2:|!


d>B|AF F/G/F/E/|DF FD/F/|AF AF|E2 E3/2|!
[1 B/|AF F/G/F/E/|DF FD/F/|AF/A/ Bc|d2:|!
[2 F/|GE E/F/E/D/|CE E>A|FA Bc|d2|]!
dA|dA/d/ fe|cB/c/ ec|BA B>c|BA FA|!
dA/d/ fe|cB/c/ ec|BA Bc|d2:|!

dd B/c/d/B/|AF AF|dd B/c/d/B/|AF ED|!
dd B/c/d/B/|AF Ad/e/|fd ec|d2 d2:|!
fd de/f/|gf ed/e/|fd A>d|fa a>g|!
fd de/f/|gf ed/e/|fd ec|d2 d2:|!

B2 B>A|FA DA|B2 B>A|B/c/d ed|!
B2 B>A|FA D>E|FD AF|E2 E2:|!
Be e>f|ed BA|Be e>f|ed Bc|!
de dB|AF DE/F/|AF dB|A2 A2:|!

GB B/c/B/A/|GB B/c/B/A/|FA D>A|FA D>A|!
GB B/c/B/A/|GB g>e|fd cA|G2 G2:|!
g2 g>f|ga ag|fd dd/e/|fg af|!
g2 g>f|gb ag|fd cA|G2 G2:|!
B2 B>c|dB AG|F>E FG|AB c/B/A|!
B2 B>c|dB Bg|fd cA|G2 G2:|!


B/A/|GD GA|Be eg/e/|dB AG/A/|BA AB/A/|!
GD GA|Be eg/e/|dB AB/A/|G2 G:|!
e/f/|gf ed|ef ge|dB AG/A/|BA A|!
[1 e/f/|gf ed|ef ge|dB AB/A/|G2 G:|!
[2 B/A/|GD GA|Be eg/e/|dB AB/A/|G2 G|]!

